Newaita-dark/actions/22/character-set.svg

<?xml version="1.0" encoding="UTF-8"?>
<svg xmlns="http://www.w3.org/2000/svg" xmlns:xlink="http://www.w3.org/1999/xlink" width="22pt" height="22pt" viewBox="0 0 22 22" version="1.1">
<g id="surface1">
<path style=" stroke:none;fill-rule:nonzero;fill:rgb(74.117649%,74.117649%,74.117649%);fill-opacity:1;" d="M 11.371094 12.453125 L 11.371094 5.175781 L 4.546875 5.175781 L 4.546875 12.453125 Z M 11.371094 12.453125 "/>
<path style=" stroke:none;fill-rule:nonzero;fill:rgb(100%,43.921569%,26.274511%);fill-opacity:1;" d="M 2.957031 1.535156 C 3.835938 1.535156 4.546875 2.25 4.546875 3.128906 C 4.546875 4.007812 3.835938 4.71875 2.957031 4.71875 C 2.078125 4.71875 1.363281 4.007812 1.363281 3.128906 C 1.363281 2.25 2.078125 1.535156 2.957031 1.535156 Z M 2.957031 1.535156 "/>
<path style=" stroke:none;fill-rule:nonzero;fill:rgb(74.117649%,74.117649%,74.117649%);fill-opacity:1;" d="M 12.28125 8.8125 L 12.28125 16.089844 L 20.921875 16.089844 L 20.785156 15.957031 C 20.609375 16.132812 20.320312 16.132812 20.144531 15.957031 L 16.960938 12.773438 C 16.785156 12.59375 16.785156 12.308594 16.960938 12.128906 L 20.144531 8.945312 C 20.226562 8.863281 20.335938 8.816406 20.453125 8.8125 C 20.578125 8.808594 20.699219 8.859375 20.785156 8.945312 L 20.921875 8.8125 Z M 12.28125 8.8125 "/>
<path style=" stroke:none;fill-rule:nonzero;fill:rgb(100%,43.921569%,26.274511%);fill-opacity:1;" d="M 2.289062 5.710938 C 2.28125 5.757812 2.273438 5.808594 2.273438 5.855469 L 2.273438 20.410156 C 2.273438 20.789062 2.578125 21.09375 2.957031 21.09375 C 3.335938 21.09375 3.636719 20.789062 3.636719 20.410156 L 3.636719 5.855469 C 3.636719 5.808594 3.632812 5.757812 3.621094 5.710938 C 3.421875 5.804688 3.195312 5.855469 2.957031 5.855469 C 2.71875 5.855469 2.492188 5.804688 2.289062 5.710938 Z M 2.289062 5.710938 "/>
</g>
</svg>

<svg xmlns="http://www.w3.org/2000/svg" width="22pt" height="22pt" viewBox="0 0 22 22"><path d="M11.371 12.453V5.176H4.547v7.277zm0 0" fill="#bdbdbd"/><path d="M2.957 1.535a1.592 1.592 0 1 1-.004 3.184 1.592 1.592 0 0 1 .004-3.184zm0 0" fill="#ff7043"/><path d="M12.281 8.813v7.277h8.64l-.136-.133a.455.455 0 0 1-.64 0l-3.184-3.184a.46.46 0 0 1 0-.644l3.184-3.184a.455.455 0 0 1 .64 0l.137-.133zm0 0" fill="#bdbdbd"/><path d="M2.29 5.71a.908.908 0 0 0-.017.145V20.41a.682.682 0 1 0 1.364 0V5.855a.607.607 0 0 0-.016-.144c-.2.094-.426.144-.664.144a1.59 1.59 0 0 1-.668-.144zm0 0" fill="#ff7043"/></svg>
